**kern	**kern	**dynam
*part1	*part1	*part1
*staff2	*staff1	*
*I"Piano	*	*
*clefF4	*clefG2	*
*k[f#c#g#]	*k[f#c#g#]	*
=1	=1	=1
2E_ 2B_	4cc# 4gg#] 4bb]	.
.	4dd#X 4ff# 4aa	.
=	=	=
4E] 4B]	4ee) 4gg#	[
(4E	(4e	p
=	=	=
4E 4B	4e 4gn	.
4E 4dn	4g 4b	.
=	=	=
4E 4c#	4gn 4a#X	.
4E 4A#X	4g 4dd	.
=	=	=
4E 4B	4f# 4gn 4dd	.
4E 4c#	4e 4g 4cc#	.
=	=	=
4E 4d	4f# 4b	.
4E 4B	4f# 4b 4dd	.
=	=	=
4E 4c#	4g#X 4cc#	.
4E#X 4d	4g# 4b	.
=	=	=
4F# 4c#	4f# 4a	.
4F# 4c#	4f# 4g#	.
=	=	=
4D 4cn	4d 4f# 4a	.
4D 4c	4d 4f# 4a#X	.
=	=	=
*-	*-	*-
!!!system-decoration: {(s1,s2)}
